X:1
T:Prelude in C (BWV 846)
C:Johann Sebastian Bach
M:4/4
L:1/4
Q:1/4=120
K:C
C E G c | D F A c | G B d f | C E G c | C E A c | D ^F A c | G B d g | C E G c |]
